images/3233677.svg

<?xml version="1.0" encoding="UTF-8"?>
<svg xmlns="http://www.w3.org/2000/svg" xmlns:xlink="http://www.w3.org/1999/xlink" width="300pt" height="300pt" viewBox="0 0 300 300" version="1.1">
<defs>
<g>
<symbol overflow="visible" id="glyph0-0">
<path style="stroke:none;" d="M 0.640625 2.296875 L 0.640625 -9.171875 L 7.140625 -9.171875 L 7.140625 2.296875 Z M 1.375 1.578125 L 6.421875 1.578125 L 6.421875 -8.4375 L 1.375 -8.4375 Z M 1.375 1.578125 "/>
</symbol>
<symbol overflow="visible" id="glyph0-1">
<path style="stroke:none;" d="M 1.28125 -9.484375 L 3 -9.484375 L 7.203125 -1.546875 L 7.203125 -9.484375 L 8.453125 -9.484375 L 8.453125 0 L 6.71875 0 L 2.515625 -7.921875 L 2.515625 0 L 1.28125 0 Z M 1.28125 -9.484375 "/>
</symbol>
</g>
</defs>
<g id="surface45417">
<rect x="0" y="0" width="300" height="300" style="fill:rgb(100%,100%,100%);fill-opacity:1;stroke:none;"/>
<path style="fill:none;stroke-width:1.2;stroke-linecap:butt;stroke-linejoin:miter;stroke:rgb(0%,0%,0%);stroke-opacity:1;stroke-miterlimit:10;" d="M 56.746094 221.179688 L 58.957031 204.933594 "/>
<path style="fill:none;stroke-width:1.2;stroke-linecap:butt;stroke-linejoin:miter;stroke:rgb(0%,0%,100%);stroke-opacity:1;stroke-miterlimit:10;" d="M 58.957031 204.933594 L 61.171875 188.691406 "/>
<path style="fill:none;stroke-width:1.2;stroke-linecap:butt;stroke-linejoin:miter;stroke:rgb(0%,0%,100%);stroke-opacity:1;stroke-miterlimit:10;" d="M 61.171875 188.691406 L 48.210938 178.652344 "/>
<path style="fill:none;stroke-width:1.2;stroke-linecap:butt;stroke-linejoin:miter;stroke:rgb(0%,0%,0%);stroke-opacity:1;stroke-miterlimit:10;" d="M 48.210938 178.652344 L 35.25 168.617188 "/>
<path style="fill:none;stroke-width:1.2;stroke-linecap:butt;stroke-linejoin:miter;stroke:rgb(0%,0%,100%);stroke-opacity:1;stroke-miterlimit:10;" d="M 61.171875 188.691406 L 76.34375 182.488281 "/>
<path style="fill:none;stroke-width:1.2;stroke-linecap:butt;stroke-linejoin:miter;stroke:rgb(0%,0%,0%);stroke-opacity:1;stroke-miterlimit:10;" d="M 76.34375 182.488281 L 91.519531 176.28125 "/>
<path style=" stroke:none;fill-rule:nonzero;fill:rgb(100%,100%,100%);fill-opacity:1;" d="M 56.171875 180.691406 L 66.171875 180.691406 L 66.171875 196.691406 L 56.171875 196.691406 Z M 56.171875 180.691406 "/>
<g style="fill:rgb(0%,0%,100%);fill-opacity:1;">
  <use xlink:href="#glyph0-1" x="56.171875" y="193.067383"/>
</g>
<path style="fill:none;stroke-width:1.2;stroke-linecap:butt;stroke-linejoin:miter;stroke:rgb(0%,0%,0%);stroke-opacity:1;stroke-miterlimit:10;" d="M 91.519531 176.28125 L 95.945312 143.792969 "/>
<path style="fill:none;stroke-width:1.2;stroke-linecap:butt;stroke-linejoin:miter;stroke:rgb(0%,0%,0%);stroke-opacity:1;stroke-miterlimit:10;" d="M 95.945312 143.792969 L 70.023438 123.71875 "/>
<path style="fill:none;stroke-width:1.2;stroke-linecap:butt;stroke-linejoin:miter;stroke:rgb(0%,0%,0%);stroke-opacity:1;stroke-miterlimit:10;" d="M 98.074219 135.6875 L 77.339844 119.628906 "/>
<path style="fill:none;stroke-width:1.2;stroke-linecap:butt;stroke-linejoin:miter;stroke:rgb(0%,0%,0%);stroke-opacity:1;stroke-miterlimit:10;" d="M 126.292969 131.382812 L 95.945312 143.792969 "/>
<path style="fill:none;stroke-width:1.2;stroke-linecap:butt;stroke-linejoin:miter;stroke:rgb(0%,0%,0%);stroke-opacity:1;stroke-miterlimit:10;" d="M 70.023438 123.71875 L 74.449219 91.230469 "/>
<path style="fill:none;stroke-width:1.2;stroke-linecap:butt;stroke-linejoin:miter;stroke:rgb(0%,0%,0%);stroke-opacity:1;stroke-miterlimit:10;" d="M 74.449219 91.230469 L 104.796875 78.820312 "/>
<path style="fill:none;stroke-width:1.2;stroke-linecap:butt;stroke-linejoin:miter;stroke:rgb(0%,0%,0%);stroke-opacity:1;stroke-miterlimit:10;" d="M 80.402344 97.132812 L 104.679688 87.203125 "/>
<path style="fill:none;stroke-width:1.2;stroke-linecap:butt;stroke-linejoin:miter;stroke:rgb(0%,0%,0%);stroke-opacity:1;stroke-miterlimit:10;" d="M 104.796875 78.820312 L 130.71875 98.898438 "/>
<path style="fill:none;stroke-width:1.2;stroke-linecap:butt;stroke-linejoin:miter;stroke:rgb(0%,0%,0%);stroke-opacity:1;stroke-miterlimit:10;" d="M 130.71875 98.898438 L 126.292969 131.382812 "/>
<path style="fill:none;stroke-width:1.2;stroke-linecap:butt;stroke-linejoin:miter;stroke:rgb(0%,0%,0%);stroke-opacity:1;stroke-miterlimit:10;" d="M 122.628906 101.105469 L 119.089844 127.09375 "/>
<path style="fill:none;stroke-width:1.2;stroke-linecap:butt;stroke-linejoin:miter;stroke:rgb(0%,0%,0%);stroke-opacity:1;stroke-miterlimit:10;" d="M 126.292969 131.382812 L 152.210938 151.460938 "/>
<path style="fill:none;stroke-width:1.2;stroke-linecap:butt;stroke-linejoin:miter;stroke:rgb(0%,0%,0%);stroke-opacity:1;stroke-miterlimit:10;" d="M 152.210938 151.460938 L 150 167.703125 "/>
<path style="fill:none;stroke-width:1.2;stroke-linecap:butt;stroke-linejoin:miter;stroke:rgb(0%,0%,100%);stroke-opacity:1;stroke-miterlimit:10;" d="M 150 167.703125 L 147.789062 183.945312 "/>
<path style="fill:none;stroke-width:1.2;stroke-linecap:butt;stroke-linejoin:miter;stroke:rgb(0%,0%,0%);stroke-opacity:1;stroke-miterlimit:10;" d="M 159.414062 155.75 L 157.644531 168.746094 "/>
<path style="fill:none;stroke-width:1.2;stroke-linecap:butt;stroke-linejoin:miter;stroke:rgb(0%,0%,100%);stroke-opacity:1;stroke-miterlimit:10;" d="M 157.644531 168.746094 L 155.875 181.738281 "/>
<path style="fill:none;stroke-width:1.2;stroke-linecap:butt;stroke-linejoin:miter;stroke:rgb(0%,0%,100%);stroke-opacity:1;stroke-miterlimit:10;" d="M 182.558594 139.050781 L 167.386719 145.253906 "/>
<path style="fill:none;stroke-width:1.2;stroke-linecap:butt;stroke-linejoin:miter;stroke:rgb(0%,0%,0%);stroke-opacity:1;stroke-miterlimit:10;" d="M 167.386719 145.253906 L 152.210938 151.460938 "/>
<path style="fill:none;stroke-width:1.2;stroke-linecap:butt;stroke-linejoin:miter;stroke:rgb(0%,0%,100%);stroke-opacity:1;stroke-miterlimit:10;" d="M 147.789062 183.945312 L 160.746094 193.984375 "/>
<path style="fill:none;stroke-width:1.2;stroke-linecap:butt;stroke-linejoin:miter;stroke:rgb(0%,0%,0%);stroke-opacity:1;stroke-miterlimit:10;" d="M 160.746094 193.984375 L 173.707031 204.023438 "/>
<path style=" stroke:none;fill-rule:nonzero;fill:rgb(100%,100%,100%);fill-opacity:1;" d="M 142.789062 175.945312 L 152.789062 175.945312 L 152.789062 191.945312 L 142.789062 191.945312 Z M 142.789062 175.945312 "/>
<g style="fill:rgb(0%,0%,100%);fill-opacity:1;">
  <use xlink:href="#glyph0-1" x="142.789062" y="188.321289"/>
</g>
<path style="fill:none;stroke-width:1.2;stroke-linecap:butt;stroke-linejoin:miter;stroke:rgb(0%,0%,0%);stroke-opacity:1;stroke-miterlimit:10;" d="M 173.707031 204.023438 L 204.054688 191.613281 "/>
<path style="fill:none;stroke-width:1.2;stroke-linecap:butt;stroke-linejoin:miter;stroke:rgb(0%,0%,0%);stroke-opacity:1;stroke-miterlimit:10;" d="M 173.824219 195.640625 L 198.101562 185.710938 "/>
<path style="fill:none;stroke-width:1.2;stroke-linecap:butt;stroke-linejoin:miter;stroke:rgb(0%,0%,0%);stroke-opacity:1;stroke-miterlimit:10;" d="M 204.054688 191.613281 L 208.480469 159.125 "/>
<path style="fill:none;stroke-width:1.2;stroke-linecap:butt;stroke-linejoin:miter;stroke:rgb(0%,0%,0%);stroke-opacity:1;stroke-miterlimit:10;" d="M 208.480469 159.125 L 195.519531 149.085938 "/>
<path style="fill:none;stroke-width:1.2;stroke-linecap:butt;stroke-linejoin:miter;stroke:rgb(0%,0%,100%);stroke-opacity:1;stroke-miterlimit:10;" d="M 195.519531 149.085938 L 182.558594 139.050781 "/>
<path style="fill:none;stroke-width:1.2;stroke-linecap:butt;stroke-linejoin:miter;stroke:rgb(0%,0%,0%);stroke-opacity:1;stroke-miterlimit:10;" d="M 201.164062 163.21875 L 190.796875 155.1875 "/>
<path style="fill:none;stroke-width:1.2;stroke-linecap:butt;stroke-linejoin:miter;stroke:rgb(0%,0%,100%);stroke-opacity:1;stroke-miterlimit:10;" d="M 190.796875 155.1875 L 180.429688 147.15625 "/>
<path style="fill:none;stroke-width:1.2;stroke-linecap:butt;stroke-linejoin:miter;stroke:rgb(0%,0%,0%);stroke-opacity:1;stroke-miterlimit:10;" d="M 208.480469 159.125 L 223.65625 152.917969 "/>
<path style="fill:none;stroke-width:1.2;stroke-linecap:butt;stroke-linejoin:miter;stroke:rgb(0%,0%,100%);stroke-opacity:1;stroke-miterlimit:10;" d="M 223.65625 152.917969 L 238.828125 146.714844 "/>
<path style=" stroke:none;fill-rule:nonzero;fill:rgb(100%,100%,100%);fill-opacity:1;" d="M 177.558594 131.050781 L 187.558594 131.050781 L 187.558594 147.050781 L 177.558594 147.050781 Z M 177.558594 131.050781 "/>
<g style="fill:rgb(0%,0%,100%);fill-opacity:1;">
  <use xlink:href="#glyph0-1" x="177.558594" y="143.426758"/>
</g>
<path style="fill:none;stroke-width:1.2;stroke-linecap:butt;stroke-linejoin:miter;stroke:rgb(0%,0%,100%);stroke-opacity:1;stroke-miterlimit:10;" d="M 238.828125 146.714844 L 251.789062 156.753906 "/>
<path style="fill:none;stroke-width:1.2;stroke-linecap:butt;stroke-linejoin:miter;stroke:rgb(0%,0%,0%);stroke-opacity:1;stroke-miterlimit:10;" d="M 251.789062 156.753906 L 264.75 166.789062 "/>
<path style="fill:none;stroke-width:1.2;stroke-linecap:butt;stroke-linejoin:miter;stroke:rgb(0%,0%,100%);stroke-opacity:1;stroke-miterlimit:10;" d="M 238.828125 146.714844 L 241.042969 130.472656 "/>
<path style="fill:none;stroke-width:1.2;stroke-linecap:butt;stroke-linejoin:miter;stroke:rgb(0%,0%,0%);stroke-opacity:1;stroke-miterlimit:10;" d="M 241.042969 130.472656 L 243.253906 114.226562 "/>
<path style=" stroke:none;fill-rule:nonzero;fill:rgb(100%,100%,100%);fill-opacity:1;" d="M 233.828125 138.714844 L 243.828125 138.714844 L 243.828125 154.714844 L 233.828125 154.714844 Z M 233.828125 138.714844 "/>
<g style="fill:rgb(0%,0%,100%);fill-opacity:1;">
  <use xlink:href="#glyph0-1" x="233.828125" y="151.09082"/>
</g>
</g>
</svg>

<svg xmlns="http://www.w3.org/2000/svg" xmlns:xlink="http://www.w3.org/1999/xlink" width="300pt" height="300pt" viewBox="0 0 300 300"><defs><symbol overflow="visible"><path d="M.64 2.297v-11.47h6.5v11.47zm.735-.72h5.047V-8.436H1.375zm0 0"/></symbol><symbol overflow="visible" id="a"><path d="M1.28-9.484H3l4.203 7.937v-7.937h1.25V0H6.72L2.515-7.922V0H1.28zm0 0"/></symbol></defs><g><path fill="#fff" d="M0 0h300v300H0z"/><path d="M56.746 221.18l2.21-16.246" stroke-width="1.2" stroke="#000" stroke-miterlimit="10" fill="none"/><path d="M58.957 204.934l2.215-16.243M61.172 188.69l-12.96-10.038" stroke-width="1.2" stroke="#00f" stroke-miterlimit="10" fill="none"/><path d="M48.21 178.652l-12.96-10.035" stroke-width="1.2" stroke="#000" stroke-miterlimit="10" fill="none"/><path d="M61.172 188.69l15.172-6.202" stroke-width="1.2" stroke="#00f" stroke-miterlimit="10" fill="none"/><path d="M76.344 182.488l15.176-6.207" stroke-width="1.2" stroke="#000" stroke-miterlimit="10" fill="none"/><path d="M56.172 180.69h10v16h-10zm0 0" fill="#fff"/><use xlink:href="#a" x="56.172" y="193.067" fill="#00f"/><path d="M91.52 176.28l4.425-32.487M95.945 143.793L70.023 123.72M98.074 135.688l-20.734-16.06M126.293 131.383l-30.348 12.41M70.023 123.72l4.426-32.49M74.45 91.23l30.347-12.41M80.402 97.133l24.278-9.93M104.797 78.82l25.922 20.078M130.72 98.898l-4.427 32.485M122.63 101.105l-3.54 25.99M126.293 131.383l25.918 20.078M152.21 151.46L150 167.704" stroke-width="1.2" stroke="#000" stroke-miterlimit="10" fill="none"/><path d="M150 167.703l-2.21 16.242" stroke-width="1.2" stroke="#00f" stroke-miterlimit="10" fill="none"/><path d="M159.414 155.75l-1.77 12.996" stroke-width="1.2" stroke="#000" stroke-miterlimit="10" fill="none"/><path d="M157.645 168.746l-1.77 12.992M182.56 139.05l-15.173 6.204" stroke-width="1.2" stroke="#00f" stroke-miterlimit="10" fill="none"/><path d="M167.387 145.254l-15.176 6.207" stroke-width="1.2" stroke="#000" stroke-miterlimit="10" fill="none"/><path d="M147.79 183.945l12.956 10.04" stroke-width="1.2" stroke="#00f" stroke-miterlimit="10" fill="none"/><path d="M160.746 193.984l12.96 10.04" stroke-width="1.2" stroke="#000" stroke-miterlimit="10" fill="none"/><path d="M142.79 175.945h10v16h-10zm0 0" fill="#fff"/><use xlink:href="#a" x="142.789" y="188.321" fill="#00f"/><path d="M173.707 204.023l30.348-12.41M173.824 195.64l24.278-9.93M204.055 191.613l4.425-32.488M208.48 159.125l-12.96-10.04" stroke-width="1.2" stroke="#000" stroke-miterlimit="10" fill="none"/><path d="M195.52 149.086l-12.96-10.035" stroke-width="1.2" stroke="#00f" stroke-miterlimit="10" fill="none"/><path d="M201.164 163.22l-10.367-8.032" stroke-width="1.2" stroke="#000" stroke-miterlimit="10" fill="none"/><path d="M190.797 155.188l-10.367-8.032" stroke-width="1.2" stroke="#00f" stroke-miterlimit="10" fill="none"/><path d="M208.48 159.125l15.176-6.207" stroke-width="1.2" stroke="#000" stroke-miterlimit="10" fill="none"/><path d="M223.656 152.918l15.172-6.203" stroke-width="1.2" stroke="#00f" stroke-miterlimit="10" fill="none"/><path d="M177.56 131.05h10v16h-10zm0 0" fill="#fff"/><use xlink:href="#a" x="177.559" y="143.427" fill="#00f"/><path d="M238.828 146.715l12.96 10.04" stroke-width="1.2" stroke="#00f" stroke-miterlimit="10" fill="none"/><path d="M251.79 156.754l12.96 10.035" stroke-width="1.2" stroke="#000" stroke-miterlimit="10" fill="none"/><path d="M238.828 146.715l2.215-16.242" stroke-width="1.2" stroke="#00f" stroke-miterlimit="10" fill="none"/><path d="M241.043 130.473l2.21-16.246" stroke-width="1.2" stroke="#000" stroke-miterlimit="10" fill="none"/><path d="M233.828 138.715h10v16h-10zm0 0" fill="#fff"/><use xlink:href="#a" x="233.828" y="151.091" fill="#00f"/></g></svg>
